X: 16082
T: Green Fields Of Woodford, The
R: jig
M: 6/8
K: Gmajor
dBA GAE|EDE Gzd|edB dBA|Bge ege|
dBA GAE|EDE GzB|GED A2B|GED D2z:|
BGG dBd|ege dBG|BGG dBd|edB AGA|
BzB dBd|ege dBG|AGE A2B|GED D2z|
BGG dBd|ege dBG|BGG dBd|edB AGA|
BzB deg|age dBG|AGE AzB|Ged ege||

